Suru++-Ubuntu/apps/scalable/gnome-robots.svg

<svg width="256" height="256" version="1.1" viewBox="0 0 67.73 67.73" xmlns="http://www.w3.org/2000/svg" xmlns:xlink="http://www.w3.org/1999/xlink">
 <defs>
  <linearGradient id="linearGradient1108" x1="296" x2="296" y1="-212" y2="236" gradientUnits="userSpaceOnUse">
   <stop style="stop-color:#ffffff" offset="0"/>
   <stop style="stop-color:#ffffff;stop-opacity:.09803922" offset=".125"/>
   <stop style="stop-color:#000000;stop-opacity:.09803922" offset=".925"/>
   <stop style="stop-color:#000000;stop-opacity:.49803922" offset="1"/>
  </linearGradient>
  <clipPath id="clipPath1082-3-27">
   <path d="M 361.9375,-212 C 507.2348,-212 528,-191.28677 528,-46.125 V 70.125 C 528,215.28618 507.2348,236 361.9375,236 H 214.0625 C 68.7652,236 48,215.28618 48,70.125 V -46.125 C 48,-191.28677 68.7652,-212 214.0625,-212 Z" style="fill:#8c59d9"/>
  </clipPath>
  <linearGradient id="linearGradient1044" x1="88" x2="256" y1="28" y2="284" gradientTransform="matrix(.26458333 0 0 .26458333 -6.993468 221.97263)" gradientUnits="userSpaceOnUse">
   <stop style="stop-color:#dbdbdb" offset="0"/>
   <stop style="stop-color:#f5f5f5" offset="1"/>
  </linearGradient>
  <filter id="filter4569" x="-.01" y="-.01" width="1.023" height="1.025" style="color-interpolation-filters:sRGB">
   <feGaussianBlur stdDeviation="1.16"/>
  </filter>
  <filter id="filter939" x="-.02" y="-.03" width="1.046" height="1.05" style="color-interpolation-filters:sRGB">
   <feGaussianBlur stdDeviation="2.32"/>
  </filter>
  <linearGradient id="linearGradient928" x1="39.998" x2="263.998" y1="91.998" y2="91.998" gradientUnits="userSpaceOnUse" xlink:href="#linearGradient926"/>
  <linearGradient id="linearGradient926">
   <stop style="stop-color:#000000;stop-opacity:.25877193" offset="0"/>
   <stop style="stop-color:#000000" offset=".491"/>
   <stop style="stop-color:#000000;stop-opacity:0" offset="1"/>
  </linearGradient>
  <clipPath id="clipPath942-3">
   <path d="m39.998047 108v113.08203c0 35.29672 3.623657 38.91992 38.992187 38.91992h146.01368c35.36853 0 38.99414-3.6232 38.99414-38.91992v-113.08203z" style="fill:url(#linearGradient946)"/>
  </clipPath>
 </defs>
 <g transform="translate(0,-229.26666)">
  <path transform="matrix(.26458333 0 0 .26458333 -1.8735233e-8 232.67026)" d="m162.53675 5.5680001c72.64865 0 83.03125 10.356615 83.03125 82.937505v58.125005c0 72.58059-10.3826 82.9375-83.03125 82.9375h-73.937496c-72.648654 0-83.031254-10.35691-83.031254-82.9375v-58.125005c0-72.58089 10.3826-82.937505 83.031254-82.937505z" style="filter:url(#filter939);opacity:.2"/>
  <path d="m43.004515 233.61429c19.221622 0 21.968685 2.74019 21.968685 21.94388v15.37891c0 19.20362-2.747063 21.94388-21.968685 21.94388h-19.562629c-19.221623 0-21.968686-2.74026-21.968686-21.94388v-15.37891c0-19.20369 2.747063-21.94388 21.968686-21.94388z" style="fill:none;opacity:.1;stroke-linecap:round;stroke-linejoin:round;stroke-width:1.0583333;stroke:#000000"/>
  <path transform="matrix(.26458333 0 0 .26458333 -1.8735233e-8 232.67026)" d="m162.53675 3.5680001c72.64865 0 83.03125 10.356615 83.03125 82.937505v58.125005c0 72.58059-10.3826 82.9375-83.03125 82.9375h-73.937496c-72.648654 0-83.031254-10.35691-83.031254-82.9375v-58.125005c0-72.58089 10.3826-82.937505 83.031254-82.937505z" style="filter:url(#filter4569);opacity:.1"/>
  <path d="m43.004513 233.61429c19.221622 0 21.968685 2.74019 21.968685 21.94388v15.37891c0 19.20362-2.747063 21.94388-21.968685 21.94388h-19.56263c-19.221622 0-21.968684-2.74026-21.968684-21.94388v-15.37891c0-19.20369 2.747062-21.94388 21.968684-21.94388z" style="fill:url(#linearGradient1044)"/>
  <path transform="matrix(.13229167 0 0 .13229167 -4.876801 261.66013)" d="M 361.9375,-212 C 507.2348,-212 528,-191.28677 528,-46.125 V 70.125 C 528,215.28618 507.2348,236 361.9375,236 H 214.0625 C 68.7652,236 48,215.28618 48,70.125 V -46.125 C 48,-191.28677 68.7652,-212 214.0625,-212 Z" clip-path="url(#clipPath1082-3-27)" style="fill:none;opacity:.4;stroke-linecap:round;stroke-linejoin:round;stroke-width:8;stroke:url(#linearGradient1108)"/>
  <path transform="matrix(.26458333 0 0 .26458333 0 229.26666)" d="m5.8476562 87.787109c-0.0839255 3.878904-0.2792968 7.275916-0.2792968 11.582032v58.124999c0 5.64294 0.2153334 10.26266 0.3652344 15.17774h239.26953c0.14991-4.91508 0.36524-9.5348 0.36524-15.17774v-58.124999c0-4.306116-0.19537-7.703128-0.2793-11.582032h-239.4414z" style="fill:#4f4f4f"/>
  <g transform="translate(-.0612521 -2.2764958e-5)">
   <circle cx="33.286" cy="263.723" r="6.738" style="fill:#ff6363"/>
   <circle cx="49.007" cy="263.723" r="6.738" style="fill:#ff6363"/>
   <circle cx="17.562" cy="263.723" r="6.738" style="fill:#ff6363"/>
  </g>
  <path transform="matrix(.27831449 0 0 .26458333 -9.0799646 223.91867)" d="m78.990234 70.001953c-35.36812-0.17299-38.992187 3.625145-38.992187 38.921877v1.07617h224v-1.07617c0-35.296732-3.62603-39.094867-38.99414-38.921877h-73.00586z" clip-path="url(#clipPath942-3)" style="fill:url(#linearGradient928);filter:url(#filter932);opacity:.5"/>
  <path transform="matrix(-.27831449 0 0 -.26458333 75.526554 303.52776)" d="m78.990234 70.001953c-35.36812-0.17299-38.992187 3.625145-38.992187 38.921877v1.07617h224v-1.07617c0-35.296732-3.62603-39.094867-38.99414-38.921877h-73.00586z" clip-path="url(#clipPath942-3)" style="fill:url(#linearGradient928);filter:url(#filter932);opacity:.5"/>
 </g>
</svg>

<svg xmlns="http://www.w3.org/2000/svg" xmlns:xlink="http://www.w3.org/1999/xlink" width="256" height="256" version="1.1" viewBox="0 0 67.73 67.73">
 <defs>
  <linearGradient id="linearGradient1108" x1="296" x2="296" y1="-212" y2="236" gradientUnits="userSpaceOnUse" xlink:href="#linearGradient1013"/>
  <linearGradient id="linearGradient1013">
   <stop offset="0" style="stop-color:#ffffff"/>
   <stop style="stop-color:#ffffff;stop-opacity:0.09803922" offset=".125"/>
   <stop style="stop-color:#000000;stop-opacity:0.09803922" offset=".925"/>
   <stop offset="1" style="stop-color:#000000;stop-opacity:0.49803922"/>
  </linearGradient>
  <clipPath id="clipPath1082-3-27" clipPathUnits="userSpaceOnUse">
   <path d="M 361.9375,-212 C 507.2348,-212 528,-191.28677 528,-46.125 V 70.125 C 528,215.28618 507.2348,236 361.9375,236 H 214.0625 C 68.7652,236 48,215.28618 48,70.125 V -46.125 C 48,-191.28677 68.7652,-212 214.0625,-212 Z" style="fill:#8c59d9"/>
  </clipPath>
  <linearGradient id="linearGradient1044" x1="88" x2="256" y1="28" y2="284" gradientTransform="matrix(0.26458333,0,0,0.26458333,-6.993468,221.97263)" gradientUnits="userSpaceOnUse" xlink:href="#linearGradient4245"/>
  <linearGradient id="linearGradient4245">
   <stop offset="0" style="stop-color:#dbdbdb"/>
   <stop offset="1" style="stop-color:#f5f5f5"/>
  </linearGradient>
  <filter style="color-interpolation-filters:sRGB" id="filter4569" width="1.023" height="1.025" x="-.01" y="-.01">
   <feGaussianBlur stdDeviation="1.16"/>
  </filter>
  <filter style="color-interpolation-filters:sRGB" id="filter939" width="1.046" height="1.05" x="-.02" y="-.03">
   <feGaussianBlur stdDeviation="2.32"/>
  </filter>
  <linearGradient id="linearGradient928" x1="39.998" x2="263.998" y1="91.998" y2="91.998" gradientUnits="userSpaceOnUse" xlink:href="#linearGradient926"/>
  <linearGradient id="linearGradient926">
   <stop style="stop-color:#000000;stop-opacity:0.25877193" offset="0"/>
   <stop offset=".491" style="stop-color:#000000"/>
   <stop style="stop-color:#000000;stop-opacity:0" offset="1"/>
  </linearGradient>
  <clipPath id="clipPath942-3" clipPathUnits="userSpaceOnUse">
   <path d="m 39.998047,108 v 113.08203 c 0,35.29672 3.623657,38.91992 38.992187,38.91992 h 73.007816 73.00586 c 35.36853,0 38.99414,-3.6232 38.99414,-38.91992 V 108 Z" style="fill:url(#linearGradient946)"/>
  </clipPath>
  <linearGradient id="linearGradient1621" x1="39.998" x2="263.998" y1="91.998" y2="91.998" gradientUnits="userSpaceOnUse" xlink:href="#linearGradient926"/>
 </defs>
 <g transform="translate(0,-229.26666)">
  <path style="opacity:0.2;filter:url(#filter939)" d="m 162.53675,5.5680001 c 72.64865,0 83.03125,10.3566149 83.03125,82.9375049 v 58.125005 c 0,72.58059 -10.3826,82.9375 -83.03125,82.9375 H 88.599254 C 15.9506,229.56801 5.568,219.2111 5.568,146.63051 V 88.505505 c 0,-72.58089 10.3826,-82.9375049 83.031254,-82.9375049 z" transform="matrix(0.26458333,0,0,0.26458333,-1.8735233e-8,232.67026)"/>
  <path d="m 43.004515,233.61429 c 19.221622,0 21.968685,2.74019 21.968685,21.94388 v 15.37891 c 0,19.20362 -2.747063,21.94388 -21.968685,21.94388 H 23.441886 C 4.220263,292.88096 1.4732,290.1407 1.4732,270.93708 v -15.37891 c 0,-19.20369 2.747063,-21.94388 21.968686,-21.94388 z" style="opacity:0.1;fill:none;stroke:#000000;stroke-width:1.05833328;stroke-linecap:round;stroke-linejoin:round"/>
  <path d="m 162.53675,3.5680001 c 72.64865,0 83.03125,10.3566149 83.03125,82.9375049 v 58.125005 c 0,72.58059 -10.3826,82.9375 -83.03125,82.9375 H 88.599254 C 15.9506,227.56801 5.568,217.2111 5.568,144.63051 V 86.505505 c 0,-72.58089 10.3826,-82.9375049 83.031254,-82.9375049 z" transform="matrix(0.26458333,0,0,0.26458333,-1.8735233e-8,232.67026)" style="opacity:0.1;filter:url(#filter4569)"/>
  <path style="fill:url(#linearGradient1044)" d="m 43.004513,233.61429 c 19.221622,0 21.968685,2.74019 21.968685,21.94388 v 15.37891 c 0,19.20362 -2.747063,21.94388 -21.968685,21.94388 h -19.56263 c -19.221622,0 -21.968684,-2.74026 -21.968684,-21.94388 v -15.37891 c 0,-19.20369 2.747062,-21.94388 21.968684,-21.94388 z"/>
  <path d="M 361.9375,-212 C 507.2348,-212 528,-191.28677 528,-46.125 V 70.125 C 528,215.28618 507.2348,236 361.9375,236 H 214.0625 C 68.7652,236 48,215.28618 48,70.125 V -46.125 C 48,-191.28677 68.7652,-212 214.0625,-212 Z" clip-path="url(#clipPath1082-3-27)" transform="matrix(0.13229167,0,0,0.13229167,-4.876801,261.66013)" style="opacity:0.4;fill:none;stroke:url(#linearGradient1108);stroke-width:8;stroke-linecap:round;stroke-linejoin:round"/>
  <path style="fill:#4f4f4f" d="M 5.8476562 87.787109 C 5.7637307 91.666013 5.5683594 95.063025 5.5683594 99.369141 L 5.5683594 157.49414 C 5.5683594 163.13708 5.7836928 167.7568 5.9335938 172.67188 L 245.20312 172.67188 C 245.35303 167.7568 245.56836 163.13708 245.56836 157.49414 L 245.56836 99.369141 C 245.56836 95.063025 245.37299 91.666013 245.28906 87.787109 L 5.8476562 87.787109 z" transform="matrix(0.26458333,0,0,0.26458333,0,229.26666)"/>
  <g transform="translate(-0.0612521,-2.2764958e-5)">
   <circle cx="33.286" cy="263.723" r="6.738" style="fill:#ff6363"/>
   <circle cx="49.007" cy="263.723" r="6.738" style="fill:#ff6363"/>
   <circle cx="17.562" cy="263.723" r="6.738" style="fill:#ff6363"/>
  </g>
  <path d="M 78.990234,70.001953 C 43.622114,69.828963 39.998047,73.627098 39.998047,108.92383 V 110 H 263.99805 v -1.07617 c 0,-35.296732 -3.62603,-39.094867 -38.99414,-38.921877 h -73.00586 z" clip-path="url(#clipPath942-3)" transform="matrix(0.27831449,0,0,0.26458333,-9.0799646,223.91867)" style="opacity:0.5;fill:url(#linearGradient928);filter:url(#filter932)"/>
  <path style="opacity:0.5;fill:url(#linearGradient1621);filter:url(#filter932)" d="M 78.990234,70.001953 C 43.622114,69.828963 39.998047,73.627098 39.998047,108.92383 V 110 H 263.99805 v -1.07617 c 0,-35.296732 -3.62603,-39.094867 -38.99414,-38.921877 h -73.00586 z" clip-path="url(#clipPath942-3)" transform="matrix(-0.27831449,0,0,-0.26458333,75.526554,303.52776)"/>
 </g>
</svg>
